X:62
T:Congress
M:4/4
L:1/8
R:reel
N:Learned from Session
Z:Michael Abraham Shulman
K:Am
Bd|:e~A3 AcBd|eaag egdg|e~A3 ABcA|BGG2 BABd|
e~A3 AcBd|eaag egdB|cBcd eged|cABG A2Bd:|
|:eaag ~a2ag|eaag egd2|egdg egdg|eaag egd2|
eaag ~a2ag|eaag egdB|cBcd eged|cABG A2Bd:|
